contributed-vectors/pass_restaurant.svg

<?xml version="1.0" encoding="UTF-8" standalone="no"?>
<svg
   width="192"
   height="192"
   version="1.1"
   viewBox="0 0 192 192"
   id="svg14"
   sodipodi:docname="pass_restaurant.svg"
   inkscape:version="1.1 (c4e8f9ed74, 2021-05-24)"
   xmlns:inkscape="http://www.inkscape.org/namespaces/inkscape"
   xmlns:sodipodi="http://sodipodi.sourceforge.net/DTD/sodipodi-0.dtd"
   xmlns="http://www.w3.org/2000/svg"
   xmlns:svg="http://www.w3.org/2000/svg"
   xmlns:rdf="http://www.w3.org/1999/02/22-rdf-syntax-ns#"
   xmlns:cc="http://creativecommons.org/ns#"
   xmlns:dc="http://purl.org/dc/elements/1.1/">
  <metadata
     id="metadata20">
    <rdf:RDF>
      <cc:Work
         rdf:about="">
        <dc:format>image/svg+xml</dc:format>
        <dc:type
           rdf:resource="http://purl.org/dc/dcmitype/StillImage" />
      </cc:Work>
    </rdf:RDF>
  </metadata>
  <defs
     id="defs18" />
  <sodipodi:namedview
     pagecolor="#ffffff"
     bordercolor="#666666"
     borderopacity="1"
     objecttolerance="10"
     gridtolerance="10"
     guidetolerance="10"
     inkscape:pageopacity="0"
     inkscape:pageshadow="2"
     inkscape:window-width="1918"
     inkscape:window-height="1021"
     id="namedview16"
     showgrid="false"
     inkscape:zoom="3.3697917"
     inkscape:cx="-3.561051"
     inkscape:cy="108.61205"
     inkscape:window-x="1920"
     inkscape:window-y="31"
     inkscape:window-maximized="1"
     inkscape:current-layer="svg14"
     inkscape:document-rotation="0"
     inkscape:pagecheckerboard="0" />
  <rect
     x="19.999977"
     y="19.999977"
     width="152.00005"
     height="152.00005"
     rx="9.9346428"
     opacity="0.63"
     id="rect2"
     style="fill:#ffffff;stroke:none;stroke-width:0.999958;stroke-miterlimit:4;stroke-dasharray:none;fill-opacity:1;opacity:1" />
  <path
     id="rect2-1"
     style="fill:#ba6561;fill-opacity:1;stroke:none;stroke-width:0.999958;stroke-miterlimit:4;stroke-dasharray:none"
     d="M 134.45508 84.03125 C 133.62013 84.020995 132.7906 84.32823 132.14648 85.025391 L 51.791016 172 L 63.585938 172 L 94.753906 137.50977 C 94.753906 137.50977 102.18288 139.09447 106.37305 133.94336 L 137.23047 90.671875 C 139.51166 86.943474 136.95994 84.062014 134.45508 84.03125 z " />
  <path
     id="rect2-0"
     style="fill:#728dbe;fill-opacity:1;stroke:none;stroke-width:0.999958;stroke-miterlimit:4;stroke-dasharray:none"
     d="M 49.548828 72.867188 C 49.027971 72.843259 48.523982 73.469255 48.953125 74.005859 L 69.46875 99.65625 C 70.191184 100.55958 68.615698 101.80459 67.900391 100.91016 L 47.386719 75.259766 C 46.819909 74.551019 45.247299 75.830867 45.802734 76.525391 L 66.316406 102.17773 C 67.052166 103.09772 65.449328 104.30853 64.748047 103.43164 L 44.234375 77.779297 C 43.633974 77.028546 42.115817 78.374041 42.652344 79.044922 L 63.166016 104.69727 C 63.913794 105.6323 62.296515 106.8226 61.599609 105.95117 L 41.083984 80.298828 C 40.518047 79.591171 38.922957 80.844864 39.5 81.566406 L 60.015625 107.2168 C 60.724211 108.10284 59.223161 109.44089 58.447266 108.4707 L 37.933594 82.818359 C 37.330466 82.064201 36.317989 83.032033 36.84375 83.689453 C 36.84375 83.689453 54.099735 108.72376 61.597656 115.9082 C 69.095578 123.09264 74.113119 123.19651 79.285156 128.29102 C 89.825088 138.67295 103.50505 158.58331 112.25 172 L 125.41797 172 C 115.14522 161.70187 93.547865 139.34177 84.222656 124.3418 C 80.389718 118.17636 81.391709 113.25909 76.03125 104.36523 C 70.670791 95.471404 50.041016 73.134766 50.041016 73.134766 C 49.89747 72.955275 49.722447 72.875164 49.548828 72.867188 z " />
  <g
     inkscape:groupmode="layer"
     id="layer1"
     inkscape:label="Layer 1" />
  <g
     aria-label="pass"
     id="text4309"
     style="font-size:35.2051px;fill:#ba6561;stroke-width:0.880128;fill-opacity:1">
    <path
       style="color:#000000;-inkscape-font-specification:'Now Alt Bold';-inkscape-stroke:none;fill:#ba6561;fill-opacity:1"
       d="m 103.06946,59.08752 c -2.02429,0 -3.696537,0.704102 -5.016728,1.892275 v -1.496217 l -5.632816,-0.04401 v 28.164081 l 5.632816,0.04401 v -12.14576 c 1.320191,1.188172 2.992438,1.892274 5.016728,1.892274 4.8407,0 8.66926,-4.048587 8.66926,-9.153326 0,-5.10474 -3.82856,-9.153327 -8.66926,-9.153327 z m -1.10016,13.333932 c -2.332338,0 -4.180606,-1.848267 -4.180606,-4.180605 0,-2.332338 1.848268,-4.180606 4.180606,-4.180606 2.33234,0 4.18061,1.848268 4.18061,4.180606 0,2.332338 -1.84827,4.180605 -4.18061,4.180605 z"
       id="path23383" />
    <path
       style="color:#000000;-inkscape-font-specification:'Now Alt Bold';-inkscape-stroke:none;fill:#ba6561;fill-opacity:1"
       d="m 133.43383,72.465459 c -0.6601,0 -1.10016,-0.836121 -1.10016,-2.288332 v -3.740542 c 0,-4.48865 -3.4765,-7.349065 -8.62525,-7.349065 -5.14875,0 -8.58124,2.55237 -8.58124,6.512944 h 5.63281 c 0,-1.408204 1.23218,-2.244325 2.94843,-2.244325 1.76025,0 2.99243,0.96814 2.99243,2.508363 v 1.320192 h -6.02887 c -3.38849,0 -5.5448,2.024293 -5.5448,5.148746 0,3.080446 2.55237,5.060733 6.46893,5.060733 2.59638,0 4.8407,-0.924134 6.2049,-2.464357 1.01215,1.584229 2.68439,2.464357 4.7967,2.464357 0.52807,0 1.18817,-0.132019 1.76025,-0.352051 v -4.576663 z m -10.25349,1.144166 c -1.45221,0 -2.37634,-0.572083 -2.37634,-1.496217 0,-0.924134 0.7041,-1.540223 1.80426,-1.540223 h 4.09259 c -0.22003,1.848267 -1.54022,3.03644 -3.52051,3.03644 z"
       id="path23385" />
    <path
       style="color:#000000;-inkscape-font-specification:'Now Alt Bold';-inkscape-stroke:none;fill:#ba6561;fill-opacity:1"
       d="m 142.8952,77.394173 c 3.96057,0 6.38092,-2.420351 6.38092,-5.720829 0,-3.52051 -2.90442,-4.928714 -5.41278,-5.896854 -1.27619,-0.528077 -1.89228,-0.792115 -1.89228,-1.452211 0,-0.572083 0.44007,-1.012147 1.40821,-1.012147 1.14416,0 2.20032,0.61609 2.72839,1.276185 l 2.81641,-3.168459 c -1.32019,-1.320191 -3.4765,-2.332338 -5.94086,-2.332338 -4.00458,0 -6.55695,2.640383 -6.55695,5.632817 0,3.52051 3.52051,4.708682 5.5448,5.45679 1.58423,0.616089 2.11231,1.056153 2.11231,1.672242 0,0.704103 -0.61609,1.10016 -1.54022,1.10016 -0.92414,0 -2.15632,-0.352051 -2.94843,-1.848268 l -4.1366,2.0683 c 1.05615,2.728395 4.31262,4.224612 7.43708,4.224612 z"
       id="path23387" />
    <path
       style="color:#000000;-inkscape-font-specification:'Now Alt Bold';-inkscape-stroke:none;fill:#ba6561;fill-opacity:1"
       d="m 158.69347,77.394173 c 3.96058,0 6.38093,-2.420351 6.38093,-5.720829 0,-3.52051 -2.90442,-4.928714 -5.41279,-5.896854 -1.27618,-0.528077 -1.89227,-0.792115 -1.89227,-1.452211 0,-0.572083 0.44006,-1.012147 1.4082,-1.012147 1.14417,0 2.20032,0.61609 2.7284,1.276185 l 2.81641,-3.168459 c -1.3202,-1.320191 -3.47651,-2.332338 -5.94087,-2.332338 -4.00458,0 -6.55695,2.640383 -6.55695,5.632817 0,3.52051 3.52051,4.708682 5.54481,5.45679 1.58423,0.616089 2.1123,1.056153 2.1123,1.672242 0,0.704103 -0.61609,1.10016 -1.54022,1.10016 -0.92413,0 -2.15631,-0.352051 -2.94843,-1.848268 l -4.1366,2.0683 c 1.05616,2.728395 4.31263,4.224612 7.43708,4.224612 z"
       id="path23389" />
  </g>
</svg>

<svg xmlns="http://www.w3.org/2000/svg" width="192" height="192"><rect width="152" height="152" x="20" y="20" opacity=".63" rx="9.935" style="fill:#fff;stroke:none;stroke-width:.999958;stroke-miterlimit:4;stroke-dasharray:none;fill-opacity:1;opacity:1"/><path d="M134.455 84.031a3.037 3.037 0 0 0-2.309.994L51.791 172h11.795l31.168-34.49s7.429 1.584 11.62-3.567l30.856-43.271c2.282-3.729-.27-6.61-2.775-6.64z" style="fill:#ba6561;fill-opacity:1;stroke:none;stroke-width:.999958;stroke-miterlimit:4;stroke-dasharray:none"/><path d="M49.549 72.867c-.521-.024-1.025.602-.596 1.139l20.516 25.65c.722.904-.853 2.149-1.569 1.254L47.387 75.26c-.567-.709-2.14.57-1.584 1.265l20.513 25.653c.736.92-.867 2.13-1.568 1.254L44.234 77.779c-.6-.75-2.118.595-1.582 1.266l20.514 25.652c.748.935-.87 2.126-1.566 1.254L41.084 80.3c-.566-.708-2.161.546-1.584 1.267l20.516 25.65c.708.887-.793 2.225-1.569 1.255L37.934 82.818c-.604-.754-1.616.214-1.09.871 0 0 17.256 25.035 24.754 32.22 7.498 7.184 12.515 7.288 17.687 12.382 10.54 10.382 24.22 30.292 32.965 43.709h13.168c-10.273-10.298-31.87-32.658-41.195-47.658-3.833-6.166-2.831-11.083-8.192-19.977-5.36-8.894-25.99-31.23-25.99-31.23a.662.662 0 0 0-.492-.268z" style="fill:#728dbe;fill-opacity:1;stroke:none;stroke-width:.999958;stroke-miterlimit:4;stroke-dasharray:none"/><g aria-label="pass" style="font-size:35.2051px;fill:#ba6561;stroke-width:.880128;fill-opacity:1"><path d="M103.07 59.088c-2.025 0-3.697.704-5.017 1.892v-1.496l-5.633-.044v28.164l5.633.044V75.502c1.32 1.188 2.992 1.892 5.016 1.892 4.841 0 8.67-4.048 8.67-9.153s-3.829-9.153-8.67-9.153zm-1.1 13.333a4.15 4.15 0 0 1-4.181-4.18 4.15 4.15 0 0 1 4.18-4.18 4.15 4.15 0 0 1 4.18 4.18 4.15 4.15 0 0 1-4.18 4.18zM133.434 72.465c-.66 0-1.1-.836-1.1-2.288v-3.74c0-4.49-3.477-7.35-8.626-7.35-5.148 0-8.58 2.553-8.58 6.513h5.632c0-1.408 1.232-2.244 2.948-2.244 1.76 0 2.993.968 2.993 2.509v1.32h-6.029c-3.389 0-5.545 2.024-5.545 5.148 0 3.08 2.553 5.061 6.47 5.061 2.595 0 4.84-.924 6.204-2.464 1.012 1.584 2.684 2.464 4.797 2.464.528 0 1.188-.132 1.76-.352v-4.577zM123.18 73.61c-1.452 0-2.376-.572-2.376-1.497 0-.924.704-1.54 1.804-1.54h4.093c-.22 1.848-1.54 3.037-3.52 3.037zM142.895 77.394c3.96 0 6.381-2.42 6.381-5.72 0-3.521-2.904-4.93-5.413-5.898-1.276-.528-1.892-.792-1.892-1.452 0-.572.44-1.012 1.408-1.012 1.144 0 2.2.616 2.729 1.276l2.816-3.168c-1.32-1.32-3.476-2.332-5.94-2.332-4.005 0-6.558 2.64-6.558 5.632 0 3.52 3.52 4.709 5.545 5.457 1.584.616 2.112 1.056 2.112 1.672 0 .704-.616 1.1-1.54 1.1s-2.156-.352-2.948-1.848l-4.137 2.069c1.056 2.728 4.313 4.224 7.437 4.224zM158.693 77.394c3.961 0 6.381-2.42 6.381-5.72 0-3.521-2.904-4.93-5.412-5.898-1.277-.528-1.893-.792-1.893-1.452 0-.572.44-1.012 1.409-1.012 1.144 0 2.2.616 2.728 1.276l2.816-3.168c-1.32-1.32-3.476-2.332-5.94-2.332-4.005 0-6.557 2.64-6.557 5.632 0 3.52 3.52 4.709 5.544 5.457 1.585.616 2.113 1.056 2.113 1.672 0 .704-.616 1.1-1.54 1.1-.925 0-2.157-.352-2.949-1.848l-4.137 2.069c1.057 2.728 4.313 4.224 7.437 4.224z" style="color:#000;-inkscape-font-specification:&quot;Now Alt Bold&quot;;-inkscape-stroke:none;fill:#ba6561;fill-opacity:1"/></g></svg>
